proprietary/assets/icons/op-kantoor/kalender-met-vinkje.svg

<svg height="64" viewBox="0 0 64 64" width="64" xmlns="http://www.w3.org/2000/svg"><path d="m0 0h64v64h-64z" fill="none"/><path d="m55 13h-6.9221l-1.7107 5.7498c-.1055.3252-.3672.2253-.3672.2253v-5.9751h-.0074c-.0145-1.2578-.057-3.3467-.1826-4.1211-.1088-.665-.2265-1.8789-1.1957-1.8789h-2.8555c-.9688 0-1.1763 1.228-1.2842 1.8936-.1255.7733-.2995 2.8526-.3982 4.1064h-15.9985l-1.7107 5.75c-.1055.3252-.3672.2251-.3672.2251v-5.9751h-.0074c-.0145-1.2578-.057-3.3467-.1826-4.1211-.1088-.665-.2265-1.8789-1.1957-1.8789h-2.8555c-.9688 0-1.1763 1.228-1.2842 1.8936-.1255.7733-.2995 2.8526-.3982 4.1064h-7.0764c-1.1045 0-2 .8955-2 2v40c0 1.1045.8955 2 2 2h46c1.1045 0 2-.8955 2-2v-40c0-1.1045-.8955-2-2-2zm-3 39h-40v-26h40z"/><path d="m29.3667 47.9986c.4021.5907 1.0196.9977 1.7343 1.0014h.0102c.7107 0 1.3539-.3829 1.7339-.9836 6.3856-10.0934 10.1683-15.9601 10.1683-15.9601.5341-.8936.3016-2.0469-.5373-2.6636-.8386-.6171-2.0093-.4947-2.7026.2812l-8.8431 9.9562-5.8304-5.1368c-.7471-.6473-1.8527-.6586-2.6125-.0277-.7606.6309-.9529 1.7194-.4547 2.5729 0 0 3.198 4.8845 7.3339 10.9601z"/></svg>

<?xml version="1.0" encoding="utf-8"?>
<!-- Generator: Adobe Illustrator 18.1.0, SVG Export Plug-In . SVG Version: 6.00 Build 0)  -->
<svg version="1.2" baseProfile="tiny" xmlns="http://www.w3.org/2000/svg" xmlns:xlink="http://www.w3.org/1999/xlink" x="0px"
	 y="0px" width="64px" height="64px" viewBox="0 0 64 64" xml:space="preserve">
<g id="Box">
	<rect fill="none" width="64" height="64"/>
</g>
<g id="Icon">
	<g>
		<path d="M55,13h-6.9221l-1.7107,5.7498C46.2617,19.075,46,18.9751,46,18.9751V13h-0.0074
			c-0.0145-1.2578-0.057-3.3467-0.1826-4.1211C45.7012,8.2139,45.5835,7,44.6143,7h-2.8555c-0.9688,0-1.1763,1.228-1.2842,1.8936
			C40.3491,9.6669,40.1751,11.7462,40.0764,13H24.0779l-1.7107,5.75C22.2617,19.0752,22,18.9751,22,18.9751V13h-0.0074
			c-0.0145-1.2578-0.057-3.3467-0.1826-4.1211C21.7012,8.2139,21.5835,7,20.6143,7h-2.8555c-0.9688,0-1.1763,1.228-1.2842,1.8936
			C16.3491,9.6669,16.1751,11.7462,16.0764,13H9c-1.1045,0-2,0.8955-2,2v40c0,1.1045,0.8955,2,2,2h46c1.1045,0,2-0.8955,2-2V15
			C57,13.8955,56.1045,13,55,13z M52,52H12V26h40V52z"/>
		<path d="M29.3667,47.9986c0.4021,0.5907,1.0196,0.9977,1.7343,1.0014c0.0033,0,0.0069,0,0.0102,0
			c0.7107,0,1.3539-0.3829,1.7339-0.9836c6.3856-10.0934,10.1683-15.9601,10.1683-15.9601
			c0.5341-0.8936,0.3016-2.0469-0.5373-2.6636c-0.8386-0.6171-2.0093-0.4947-2.7026,0.2812l-8.8431,9.9562L25.1,34.4933
			c-0.7471-0.6473-1.8527-0.6586-2.6125-0.0277c-0.7606,0.6309-0.9529,1.7194-0.4547,2.5729
			C22.0328,37.0385,25.2308,41.923,29.3667,47.9986z"/>
	</g>
</g>
</svg>
